svg/u2692.svg

<svg viewBox="0 0 128 128" xmlns="http://www.w3.org/2000/svg">
  <g>
    <path d="M115.52,115.11l-6.18,5.77c-2.38,2.22-6.13,2.08-8.34-0.31L21.75,31.98l9.47-7.7l84.48,82.58 C117.98,109.17,117.89,112.89,115.52,115.11z" fill="#A06841"/>
    <path d="M28.99,40.08l18.86,21.09c2.55-4.96,4.22-10.44,4.8-15.93L34.55,27.53 c-1.36,1.21-2.53,2.65-3.4,4.24C29.76,34.32,29.09,37.18,28.99,40.08z" fill="#7D5133"/>
    <path d="M59.09,18.14l-8.23-8.26c-1.91-1.92-4.45-2.97-7.14-2.98c-2.68,0.01-5.23,1.05-7.15,2.96L6.98,39.35 C5.06,41.26,4,43.79,4,46.49c0,2.7,1.05,5.23,2.96,7.15l8.24,8.26c1.92,1.92,4.47,2.98,7.19,2.98c0.02,0,0.04,0,0.06,0 c2.69-0.01,5.2-1.07,7.05-2.96l29.58-29.49c1.92-1.91,2.97-4.45,2.98-7.14S61,20.06,59.09,18.14z" fill="#82AEC0"/>
    <path d="M24.57,20.2c-1.28,0.1-2.37,0.92-3.38,1.7c-1.52,1.18-3.09,2.41-4.03,4.1s-1.11,3.96,0.11,5.45 C19.12,33.7,34.91,19.39,24.57,20.2z" fill="#A06841"/>
    <path d="M28.05,61.17c-4.42-4.41-13.65-15.11-13.88-15.37c-1.6-1.76-5.76-1.34-9-0.14 c-0.7,0.26-1.17,0.95-1.11,1.7c0.1,1.44,0.65,3.93,2.9,6.28l8.24,8.26c1.92,1.92,4.47,2.98,7.19,2.98c0.02,0,0.04,0,0.06,0 c2.12-0.01,4.12-0.67,5.78-1.87c0.48-0.34,0.57-0.99,0.19-1.45C28.3,61.42,28.18,61.29,28.05,61.17z" fill="#2F7889"/>
    <path d="M9.4,114.79l6.18,5.77c2.38,2.22,5.4,2.81,7.61,0.42l79.24-88.59l-9.47-7.7L8.49,107.27 C6.21,109.59,7.02,112.57,9.4,114.79z" fill="#A06841"/>
    <path d="M95.19,40.49L78.08,59.62c5.2-13.54-0.63-19.77-0.63-19.77l12.19-11.91 c1.36,1.21,2.53,2.65,3.4,4.24C94.43,34.73,95.1,37.59,95.19,40.49z" fill="#7D5133"/>
    <path d="M99.62,20.61c1.28,0.1,2.37,0.92,3.38,1.7c1.52,1.18,3.09,2.41,4.03,4.1s1.11,3.96-0.11,5.45 C105.07,34.12,89.27,19.81,99.62,20.61z" fill="#A06841"/>
    <path d="M62.28,77.29l11.25,12.58c-1.07-4.39-0.07-14.54,4.41-19.92l-4.86-4.75L62.28,77.29z" fill="#7D5133"/>
    <path d="M123.97,61.71c-1.08-8.66-5.05-23.96-17.39-38.27C94.43,9.36,78.24,5.97,74.46,5.34 c0,0-0.63-0.1-0.89,0c-0.22,0.09-0.49,0.25-0.49,0.25l-8.72,6.43c0,0-0.4,5.06,0.25,5.09c4.2,0.22,20.15,1.42,24.34,7.17 c0,0-7.17,8.91-9.26,11.6c0,0,0,0,0.01,0c-0.02,0.02-0.04,0.03-0.05,0.05c-0.76,0.76-1,1.68-0.87,2.68 c2.07-1.6,4.77-0.23,7.26,2.26c2.53,2.53,3.92,5.26,2.17,7.35c1.08,0.2,2.06-0.04,2.88-0.85c0.13-0.13,8.63-9.17,8.64-9.16 c7.29,3.14,9.39,5.88,13.36,10.55c1.29,1.52,8.75,15.55,10.49,14.43C124.02,62.9,124.04,62.24,123.97,61.71z" fill="#82AEC0"/>
    <path d="M99.72,37.26l5.51-6.11c6.45,5.33,19.62,29.55,18.34,31.09C122.36,63.69,111.29,43.26,99.72,37.26z" fill="#2F7889"/>
    <path d="M44.74,10.14c0.47-0.48,0.96-1.18,0.61-1.74c-0.22-0.36-0.69-0.46-1.11-0.5 c-1.18-0.11-2.38,0.04-3.49,0.45c-2.08,0.76-8.04,6.79-10.57,9.41c-0.4,0.42-0.06,1.1,0.52,1.03c2.2-0.28,5.89-0.88,6.93-1.92 C39.14,15.37,44.74,10.14,44.74,10.14z" fill="#B9E4EA"/>
    <ellipse cx="14.71" cy="115.01" rx="4.04" ry="9.74" fill="#7D5133" transform="matrix(0.7071 -0.7071 0.7071 0.7071 -77.0157 44.0898)"/>
    <path d="M88.95,24.28c0,0-9.3,11.63-9.31,11.65c-0.76,0.76-1,1.68-0.87,2.68c1.84-1.43,4.19-0.49,6.44,1.49 c-1.28-1.69-0.44-2.79-0.44-2.79s8.22-9.85,10.94-13.12c0.68-0.81,0.56-2.02-0.27-2.68c-3.3-2.63-12.11-8.63-21.79-10.27 l-10.08,4.98c-0.03,0.53,0.17,0.86,0.54,0.86c0.28,0,0.69,0.04,0.69,0.04C69.28,17.37,84.82,18.62,88.95,24.28z" fill="#2F7889"/>
    <path d="M64.21,16.69l9.08-5.25c0.22-0.13,0.36-0.36,0.36-0.62V5.97c0-0.32-0.35-0.52-0.63-0.34l-8.73,5.53 c-0.45,0.28-0.72,0.78-0.72,1.31v3.86C63.57,16.65,63.93,16.86,64.21,16.69z" fill="#B9E4EA"/>
    <line fill="none" x1="46.88" x2="11.42" y1="9.51" y2="44.97"/>
  </g>
</svg>

<svg viewBox="0 0 128 128" xmlns="http://www.w3.org/2000/svg">
  <defs/>
  <path d="M115.52,115.11 L109.34,120.88 C106.96,123.1 103.21,122.96 101,120.57 L21.75,31.98 L31.22,24.28 L115.7,106.86 C117.98,109.17 117.89,112.89 115.52,115.11 Z" fill="#A06841"/>
  <path d="M28.99,40.08 L47.85,61.17 C50.4,56.21 52.07,50.73 52.65,45.24 L34.55,27.53 C33.19,28.74 32.02,30.18 31.15,31.77 C29.76,34.32 29.09,37.18 28.99,40.08 Z" fill="#7D5133"/>
  <path d="M59.09,18.14 L50.86,9.88 C48.95,7.96 46.41,6.91 43.72,6.9 C41.04,6.91 38.49,7.95 36.57,9.86 L6.98,39.35 C5.06,41.26 4,43.79 4,46.49 C4,49.19 5.05,51.72 6.96,53.64 L15.2,61.9 C17.12,63.82 19.67,64.88 22.39,64.88 C22.41,64.88 22.43,64.88 22.45,64.88 C25.14,64.87 27.65,63.81 29.5,61.92 L59.08,32.43 C61,30.52 62.05,27.98 62.06,25.29 C62.07,22.6 61,20.06 59.09,18.14 Z" fill="#82AEC0"/>
  <path d="M24.57,20.2 C23.29,20.3 22.2,21.12 21.19,21.9 C19.67,23.08 18.1,24.31 17.16,26 C16.22,27.69 16.05,29.96 17.27,31.45 C19.12,33.7 34.91,19.39 24.57,20.2 Z" fill="#A06841"/>
  <path d="M28.05,61.17 C23.63,56.76 14.4,46.06 14.17,45.8 C12.57,44.04 8.41,44.46 5.17,45.66 C4.47,45.92 4,46.61 4.06,47.36 C4.16,48.8 4.71,51.29 6.96,53.64 L15.2,61.9 C17.12,63.82 19.67,64.88 22.39,64.88 C22.41,64.88 22.43,64.88 22.45,64.88 C24.57,64.87 26.57,64.21 28.23,63.01 C28.71,62.67 28.8,62.02 28.42,61.56 C28.3,61.42 28.18,61.29 28.05,61.17 Z" fill="#2F7889"/>
  <path d="M9.4,114.79 L15.58,120.56 C17.96,122.78 20.98,123.37 23.19,120.98 L102.43,32.39 L92.96,24.69 L8.49,107.27 C6.21,109.59 7.02,112.57 9.4,114.79 Z" fill="#A06841"/>
  <path d="M95.19,40.49 L78.08,59.62 C83.28,46.08 77.45,39.85 77.45,39.85 L89.64,27.94 C91,29.15 92.17,30.59 93.04,32.18 C94.43,34.73 95.1,37.59 95.19,40.49 Z" fill="#7D5133"/>
  <path d="M99.62,20.61 C100.9,20.71 101.99,21.53 103,22.31 C104.52,23.49 106.09,24.72 107.03,26.41 C107.97,28.1 108.14,30.37 106.92,31.86 C105.07,34.12 89.27,19.81 99.62,20.61 Z" fill="#A06841"/>
  <path d="M62.28,77.29 L73.53,89.87 C72.46,85.48 73.46,75.33 77.94,69.95 L73.08,65.2 L62.28,77.29 Z" fill="#7D5133"/>
  <path d="M123.97,61.71 C122.89,53.05 118.92,37.75 106.58,23.44 C94.43,9.36 78.24,5.97 74.46,5.34 C74.46,5.34 73.83,5.24 73.57,5.34 C73.35,5.43 73.08,5.59 73.08,5.59 L64.36,12.02 C64.36,12.02 63.96,17.08 64.61,17.11 C68.81,17.33 84.76,18.53 88.95,24.28 C88.95,24.28 81.78,33.19 79.69,35.88 C79.69,35.88 79.69,35.88 79.7,35.88 C79.68,35.9 79.66,35.91 79.65,35.93 C78.89,36.69 78.65,37.61 78.78,38.61 C80.85,37.01 83.55,38.38 86.04,40.87 C88.57,43.4 89.96,46.13 88.21,48.22 C89.29,48.42 90.27,48.18 91.09,47.37 C91.22,47.24 99.72,38.2 99.73,38.21 C107.02,41.35 109.12,44.09 113.09,48.76 C114.38,50.28 121.84,64.31 123.58,63.19 C124.02,62.9 124.04,62.24 123.97,61.71 Z" fill="#82AEC0"/>
  <path d="M99.72,37.26 L105.23,31.15 C111.68,36.48 124.85,60.7 123.57,62.24 C122.36,63.69 111.29,43.26 99.72,37.26 Z" fill="#2F7889"/>
  <path d="M44.74,10.14 C45.21,9.66 45.7,8.96 45.35,8.4 C45.13,8.04 44.66,7.94 44.24,7.9 C43.06,7.79 41.86,7.94 40.75,8.35 C38.67,9.11 32.71,15.14 30.18,17.76 C29.78,18.18 30.12,18.86 30.7,18.79 C32.9,18.51 36.59,17.91 37.63,16.87 C39.14,15.37 44.74,10.14 44.74,10.14 Z" fill="#B9E4EA"/>
  <path d="M17.566,112.155 C21.37,115.959 23.174,120.321 21.596,121.899 C20.019,123.477 15.656,121.672 11.853,117.869 C8.049,114.065 6.244,109.702 7.822,108.125 C9.4,106.547 13.762,108.352 17.566,112.155 Z" fill="#7D5133"/>
  <path d="M88.95,24.28 C88.95,24.28 79.65,35.91 79.64,35.93 C78.88,36.69 78.64,37.61 78.77,38.61 C80.61,37.18 82.96,38.12 85.21,40.1 C83.93,38.41 84.77,37.31 84.77,37.31 C84.77,37.31 92.99,27.46 95.71,24.19 C96.39,23.38 96.27,22.17 95.44,21.51 C92.14,18.88 83.33,12.88 73.65,11.24 L63.57,16.22 C63.54,16.75 63.74,17.08 64.11,17.08 C64.39,17.08 64.8,17.12 64.8,17.12 C69.28,17.37 84.82,18.62 88.95,24.28 Z" fill="#2F7889"/>
  <path d="M64.21,16.69 L73.29,11.44 C73.51,11.31 73.65,11.08 73.65,10.82 L73.65,5.97 C73.65,5.65 73.3,5.45 73.02,5.63 L64.29,11.16 C63.84,11.44 63.57,11.94 63.57,12.47 L63.57,16.33 C63.57,16.65 63.93,16.86 64.21,16.69 Z" fill="#B9E4EA"/>
</svg>
